packages/icons/svgs/solid/Source=device.svg

<svg width="12" height="12" viewBox="0 0 12 12" fill="none" xmlns="http://www.w3.org/2000/svg">
<path d="M9 12H3C2.17275 12 1.5 11.3273 1.5 10.5V3.75C1.5 2.92275 2.17275 2.25 3 2.25H9C9.82725 2.25 10.5 2.92275 10.5 3.75V10.5C10.5 11.3273 9.82725 12 9 12ZM3 3.75V10.5H9.00075L9 3.75H3Z" fill="black"/>
<path d="M9.75 0H6.75V1.5H9.75V0Z" fill="black"/>
<path d="M6 9C6.41421 9 6.75 8.66421 6.75 8.25C6.75 7.83579 6.41421 7.5 6 7.5C5.58579 7.5 5.25 7.83579 5.25 8.25C5.25 8.66421 5.58579 9 6 9Z" fill="black"/>
</svg>

<svg xmlns="http://www.w3.org/2000/svg" width="12" height="12" viewBox="0 0 12 12"><path d="M9 12H3c-.827 0-1.5-.673-1.5-1.5V3.75c0-.827.673-1.5 1.5-1.5h6c.827 0 1.5.673 1.5 1.5v6.75c0 .827-.673 1.5-1.5 1.5ZM3 3.75v6.75h6V3.75H3ZM9.75 0h-3v1.5h3V0Z"/><path d="M6 9a.75.75 0 1 0 0-1.5A.75.75 0 0 0 6 9Z"/></svg>
